src/assets/images/Nosotros_title.svg

<?xml version="1.0" encoding="UTF-8"?>
<svg width="250px" height="60px" viewBox="0 0 250 60" version="1.1" xmlns="http://www.w3.org/2000/svg" xmlns:xlink="http://www.w3.org/1999/xlink">
    <!-- Generator: Sketch 59 (86127) - https://sketch.com -->
    <title>Nosotros_title</title>
    <desc>Created with Sketch.</desc>
    <g id="nosotros" stroke="none" stroke-width="1" fill="none" fill-rule="evenodd">
        <g id="Iphone11Pro_375x812_002" transform="translate(-65.000000, -115.000000)">
            <g id="Nosotros_title" transform="translate(67.000000, 117.000000)">
                <rect id="Rectangle" stroke="#FBB420" stroke-width="3" x="0" y="0" width="246" height="56" rx="11"></rect>
                <path d="M15.892,41 L15.892,21.344 L15.97,21.344 L28.021,41 L35.977,41 L35.977,13.388 L29.893,13.388 L29.893,32.576 L29.815,32.576 L18.076,13.388 L9.808,13.388 L9.808,41 L15.892,41 Z M56.2279277,41.702 C58.3859277,41.702 60.3749277,41.364 62.1949277,40.688 C64.0149277,40.012 65.5879277,39.0435 66.9139277,37.7825 C68.2399277,36.5215 69.2734277,34.994 70.0144277,33.2 C70.7554277,31.406 71.1259277,29.404 71.1259277,27.194 C71.1259277,24.984 70.7554277,22.982 70.0144277,21.188 C69.2734277,19.394 68.2399277,17.8665 66.9139277,16.6055 C65.5879277,15.3445 64.0149277,14.376 62.1949277,13.7 C60.3749277,13.024 58.3859277,12.686 56.2279277,12.686 C54.0699277,12.686 52.0809277,13.024 50.2609277,13.7 C48.4409277,14.376 46.8679277,15.3445 45.5419277,16.6055 C44.2159277,17.8665 43.1824277,19.394 42.4414277,21.188 C41.7004277,22.982 41.3299277,24.984 41.3299277,27.194 C41.3299277,29.404 41.7004277,31.406 42.4414277,33.2 C43.1824277,34.994 44.2159277,36.5215 45.5419277,37.7825 C46.8679277,39.0435 48.4409277,40.012 50.2609277,40.688 C52.0809277,41.364 54.0699277,41.702 56.2279277,41.702 Z M56.2279277,36.086 C54.9279277,36.086 53.7514277,35.865 52.6984277,35.423 C51.6454277,34.981 50.7419277,34.3635 49.9879277,33.5705 C49.2339277,32.7775 48.6554277,31.8415 48.2524277,30.7625 C47.8494277,29.6835 47.6479277,28.494 47.6479277,27.194 C47.6479277,25.92 47.8494277,24.737 48.2524277,23.645 C48.6554277,22.553 49.2339277,21.6105 49.9879277,20.8175 C50.7419277,20.0245 51.6454277,19.407 52.6984277,18.965 C53.7514277,18.523 54.9279277,18.302 56.2279277,18.302 C57.5279277,18.302 58.7044277,18.523 59.7574277,18.965 C60.8104277,19.407 61.7139277,20.0245 62.4679277,20.8175 C63.2219277,21.6105 63.8004277,22.553 64.2034277,23.645 C64.6064277,24.737 64.8079277,25.92 64.8079277,27.194 C64.8079277,28.494 64.6064277,29.6835 64.2034277,30.7625 C63.8004277,31.8415 63.2219277,32.7775 62.4679277,33.5705 C61.7139277,34.3635 60.8104277,34.981 59.7574277,35.423 C58.7044277,35.865 57.5279277,36.086 56.2279277,36.086 Z M83.6938553,41.702 C85.1238553,41.702 86.4823553,41.52 87.7693553,41.156 C89.0563553,40.792 90.1873553,40.233 91.1623553,39.479 C92.1373553,38.725 92.9108553,37.776 93.4828553,36.632 C94.0548553,35.488 94.3408553,34.149 94.3408553,32.615 C94.3408553,31.003 94.0288553,29.716 93.4048553,28.754 C92.7808553,27.792 91.9943553,27.025 91.0453553,26.453 C90.0963553,25.881 89.0758553,25.439 87.9838553,25.127 C86.8918553,24.815 85.8713553,24.503 84.9223553,24.191 C83.9733553,23.879 83.1868553,23.502 82.5628553,23.06 C81.9388553,22.618 81.6268553,21.981 81.6268553,21.149 C81.6268553,20.629 81.7568553,20.187 82.0168553,19.823 C82.2768553,19.459 82.6148553,19.1665 83.0308553,18.9455 C83.4468553,18.7245 83.8888553,18.562 84.3568553,18.458 C84.8248553,18.354 85.2798553,18.302 85.7218553,18.302 C86.4758553,18.302 87.2753553,18.4515 88.1203553,18.7505 C88.9653553,19.0495 89.6348553,19.511 90.1288553,20.135 L90.1288553,20.135 L94.3018553,15.572 C93.1318553,14.532 91.8188553,13.791 90.3628553,13.349 C88.9068553,12.907 87.3988553,12.686 85.8388553,12.686 C84.4868553,12.686 83.1738553,12.8745 81.8998553,13.2515 C80.6258553,13.6285 79.5013553,14.194 78.5263553,14.948 C77.5513553,15.702 76.7713553,16.638 76.1863553,17.756 C75.6013553,18.874 75.3088553,20.174 75.3088553,21.656 C75.3088553,23.19 75.6273553,24.425 76.2643553,25.361 C76.9013553,26.297 77.7008553,27.051 78.6628553,27.623 C79.6248553,28.195 80.6648553,28.65 81.7828553,28.988 C82.9008553,29.326 83.9408553,29.664 84.9028553,30.002 C85.8648553,30.34 86.6643553,30.7495 87.3013553,31.2305 C87.9383553,31.7115 88.2568553,32.368 88.2568553,33.2 C88.2568553,33.694 88.1333553,34.123 87.8863553,34.487 C87.6393553,34.851 87.3143553,35.15 86.9113553,35.384 C86.5083553,35.618 86.0533553,35.7935 85.5463553,35.9105 C85.0393553,36.0275 84.5388553,36.086 84.0448553,36.086 C83.0308553,36.086 82.0493553,35.8585 81.1003553,35.4035 C80.1513553,34.9485 79.3648553,34.305 78.7408553,33.473 L78.7408553,33.473 L74.4118553,38.231 C75.7378553,39.453 77.1678553,40.337 78.7018553,40.883 C80.2358553,41.429 81.8998553,41.702 83.6938553,41.702 Z M113.499783,41.702 C115.657783,41.702 117.646783,41.364 119.466783,40.688 C121.286783,40.012 122.859783,39.0435 124.185783,37.7825 C125.511783,36.5215 126.545283,34.994 127.286283,33.2 C128.027283,31.406 128.397783,29.404 128.397783,27.194 C128.397783,24.984 128.027283,22.982 127.286283,21.188 C126.545283,19.394 125.511783,17.8665 124.185783,16.6055 C122.859783,15.3445 121.286783,14.376 119.466783,13.7 C117.646783,13.024 115.657783,12.686 113.499783,12.686 C111.341783,12.686 109.352783,13.024 107.532783,13.7 C105.712783,14.376 104.139783,15.3445 102.813783,16.6055 C101.487783,17.8665 100.454283,19.394 99.713283,21.188 C98.972283,22.982 98.601783,24.984 98.601783,27.194 C98.601783,29.404 98.972283,31.406 99.713283,33.2 C100.454283,34.994 101.487783,36.5215 102.813783,37.7825 C104.139783,39.0435 105.712783,40.012 107.532783,40.688 C109.352783,41.364 111.341783,41.702 113.499783,41.702 Z M113.499783,36.086 C112.199783,36.086 111.023283,35.865 109.970283,35.423 C108.917283,34.981 108.013783,34.3635 107.259783,33.5705 C106.505783,32.7775 105.927283,31.8415 105.524283,30.7625 C105.121283,29.6835 104.919783,28.494 104.919783,27.194 C104.919783,25.92 105.121283,24.737 105.524283,23.645 C105.927283,22.553 106.505783,21.6105 107.259783,20.8175 C108.013783,20.0245 108.917283,19.407 109.970283,18.965 C111.023283,18.523 112.199783,18.302 113.499783,18.302 C114.799783,18.302 115.976283,18.523 117.029283,18.965 C118.082283,19.407 118.985783,20.0245 119.739783,20.8175 C120.493783,21.6105 121.072283,22.553 121.475283,23.645 C121.878283,24.737 122.079783,25.92 122.079783,27.194 C122.079783,28.494 121.878283,29.6835 121.475283,30.7625 C121.072283,31.8415 120.493783,32.7775 119.739783,33.5705 C118.985783,34.3635 118.082283,34.981 117.029283,35.423 C115.976283,35.865 114.799783,36.086 113.499783,36.086 Z M145.177711,41 L145.177711,18.77 L153.055711,18.77 L153.055711,13.388 L131.215711,13.388 L131.215711,18.77 L139.093711,18.77 L139.093711,41 L145.177711,41 Z M163.439638,41 L163.439638,29.963 L166.442638,29.963 L172.214638,41 L179.507638,41 L172.487638,29.339 C174.437638,28.975 175.919638,28.1105 176.933638,26.7455 C177.947638,25.3805 178.454638,23.723 178.454638,21.773 C178.454638,20.161 178.175138,18.8155 177.616138,17.7365 C177.057138,16.6575 176.303138,15.7995 175.354138,15.1625 C174.405138,14.5255 173.300138,14.0705 172.039138,13.7975 C170.778138,13.5245 169.445638,13.388 168.041638,13.388 L168.041638,13.388 L157.355638,13.388 L157.355638,41 L163.439638,41 Z M167.027638,24.815 L163.439638,24.815 L163.439638,18.536 L167.417638,18.536 C167.963638,18.536 168.522638,18.575 169.094638,18.653 C169.666638,18.731 170.173638,18.8805 170.615638,19.1015 C171.057638,19.3225 171.421638,19.641 171.707638,20.057 C171.993638,20.473 172.136638,21.032 172.136638,21.734 C172.136638,22.488 171.974138,23.073 171.649138,23.489 C171.324138,23.905 170.914638,24.2105 170.420638,24.4055 C169.926638,24.6005 169.374138,24.7175 168.763138,24.7565 C168.152138,24.7955 167.573638,24.815 167.027638,24.815 L167.027638,24.815 Z M197.262566,41.702 C199.420566,41.702 201.409566,41.364 203.229566,40.688 C205.049566,40.012 206.622566,39.0435 207.948566,37.7825 C209.274566,36.5215 210.308066,34.994 211.049066,33.2 C211.790066,31.406 212.160566,29.404 212.160566,27.194 C212.160566,24.984 211.790066,22.982 211.049066,21.188 C210.308066,19.394 209.274566,17.8665 207.948566,16.6055 C206.622566,15.3445 205.049566,14.376 203.229566,13.7 C201.409566,13.024 199.420566,12.686 197.262566,12.686 C195.104566,12.686 193.115566,13.024 191.295566,13.7 C189.475566,14.376 187.902566,15.3445 186.576566,16.6055 C185.250566,17.8665 184.217066,19.394 183.476066,21.188 C182.735066,22.982 182.364566,24.984 182.364566,27.194 C182.364566,29.404 182.735066,31.406 183.476066,33.2 C184.217066,34.994 185.250566,36.5215 186.576566,37.7825 C187.902566,39.0435 189.475566,40.012 191.295566,40.688 C193.115566,41.364 195.104566,41.702 197.262566,41.702 Z M197.262566,36.086 C195.962566,36.086 194.786066,35.865 193.733066,35.423 C192.680066,34.981 191.776566,34.3635 191.022566,33.5705 C190.268566,32.7775 189.690066,31.8415 189.287066,30.7625 C188.884066,29.6835 188.682566,28.494 188.682566,27.194 C188.682566,25.92 188.884066,24.737 189.287066,23.645 C189.690066,22.553 190.268566,21.6105 191.022566,20.8175 C191.776566,20.0245 192.680066,19.407 193.733066,18.965 C194.786066,18.523 195.962566,18.302 197.262566,18.302 C198.562566,18.302 199.739066,18.523 200.792066,18.965 C201.845066,19.407 202.748566,20.0245 203.502566,20.8175 C204.256566,21.6105 204.835066,22.553 205.238066,23.645 C205.641066,24.737 205.842566,25.92 205.842566,27.194 C205.842566,28.494 205.641066,29.6835 205.238066,30.7625 C204.835066,31.8415 204.256566,32.7775 203.502566,33.5705 C202.748566,34.3635 201.845066,34.981 200.792066,35.423 C199.739066,35.865 198.562566,36.086 197.262566,36.086 Z M224.728494,41.702 C226.158494,41.702 227.516994,41.52 228.803994,41.156 C230.090994,40.792 231.221994,40.233 232.196994,39.479 C233.171994,38.725 233.945494,37.776 234.517494,36.632 C235.089494,35.488 235.375494,34.149 235.375494,32.615 C235.375494,31.003 235.063494,29.716 234.439494,28.754 C233.815494,27.792 233.028994,27.025 232.079994,26.453 C231.130994,25.881 230.110494,25.439 229.018494,25.127 C227.926494,24.815 226.905994,24.503 225.956994,24.191 C225.007994,23.879 224.221494,23.502 223.597494,23.06 C222.973494,22.618 222.661494,21.981 222.661494,21.149 C222.661494,20.629 222.791494,20.187 223.051494,19.823 C223.311494,19.459 223.649494,19.1665 224.065494,18.9455 C224.481494,18.7245 224.923494,18.562 225.391494,18.458 C225.859494,18.354 226.314494,18.302 226.756494,18.302 C227.510494,18.302 228.309994,18.4515 229.154994,18.7505 C229.999994,19.0495 230.669494,19.511 231.163494,20.135 L231.163494,20.135 L235.336494,15.572 C234.166494,14.532 232.853494,13.791 231.397494,13.349 C229.941494,12.907 228.433494,12.686 226.873494,12.686 C225.521494,12.686 224.208494,12.8745 222.934494,13.2515 C221.660494,13.6285 220.535994,14.194 219.560994,14.948 C218.585994,15.702 217.805994,16.638 217.220994,17.756 C216.635994,18.874 216.343494,20.174 216.343494,21.656 C216.343494,23.19 216.661994,24.425 217.298994,25.361 C217.935994,26.297 218.735494,27.051 219.697494,27.623 C220.659494,28.195 221.699494,28.65 222.817494,28.988 C223.935494,29.326 224.975494,29.664 225.937494,30.002 C226.899494,30.34 227.698994,30.7495 228.335994,31.2305 C228.972994,31.7115 229.291494,32.368 229.291494,33.2 C229.291494,33.694 229.167994,34.123 228.920994,34.487 C228.673994,34.851 228.348994,35.15 227.945994,35.384 C227.542994,35.618 227.087994,35.7935 226.580994,35.9105 C226.073994,36.0275 225.573494,36.086 225.079494,36.086 C224.065494,36.086 223.083994,35.8585 222.134994,35.4035 C221.185994,34.9485 220.399494,34.305 219.775494,33.473 L219.775494,33.473 L215.446494,38.231 C216.772494,39.453 218.202494,40.337 219.736494,40.883 C221.270494,41.429 222.934494,41.702 224.728494,41.702 Z" id="NOSOTROS" fill="#FFFFFF" fill-rule="nonzero"></path>
                <ellipse id="Oval" fill="#FFFFFF" cx="114.5" cy="27" rx="13.5" ry="13"></ellipse>
            </g>
        </g>
    </g>
</svg>

<svg width="250" height="60" viewBox="0 0 250 60" xmlns="http://www.w3.org/2000/svg"><g transform="translate(2 2)" fill="none" fill-rule="evenodd"><rect stroke="#FBB420" stroke-width="3" width="246" height="56" rx="11"/><path d="M15.892 41V21.344h.078L28.021 41h7.956V13.388h-6.084v19.188h-.078L18.076 13.388H9.808V41h6.084zm40.336.702c2.158 0 4.147-.338 5.967-1.014 1.82-.676 3.393-1.645 4.719-2.906 1.326-1.26 2.36-2.788 3.1-4.582.741-1.794 1.112-3.796 1.112-6.006 0-2.21-.37-4.212-1.112-6.006-.74-1.794-1.774-3.322-3.1-4.582-1.326-1.262-2.9-2.23-4.72-2.906-1.82-.676-3.808-1.014-5.966-1.014-2.158 0-4.147.338-5.967 1.014-1.82.676-3.393 1.645-4.72 2.905-1.325 1.261-2.359 2.789-3.1 4.583-.74 1.794-1.111 3.796-1.111 6.006 0 2.21.37 4.212 1.111 6.006.741 1.794 1.775 3.322 3.1 4.582 1.327 1.262 2.9 2.23 4.72 2.906 1.82.676 3.809 1.014 5.967 1.014zm0-5.616c-1.3 0-2.477-.221-3.53-.663a7.921 7.921 0 01-2.71-1.852 8.174 8.174 0 01-1.736-2.808c-.403-1.08-.604-2.269-.604-3.569 0-1.274.201-2.457.604-3.549a8.137 8.137 0 011.736-2.828 7.921 7.921 0 012.71-1.852c1.053-.442 2.23-.663 3.53-.663 1.3 0 2.476.221 3.53.663a7.921 7.921 0 012.71 1.852 8.137 8.137 0 011.735 2.828c.403 1.092.605 2.275.605 3.549 0 1.3-.202 2.49-.605 3.569a8.174 8.174 0 01-1.735 2.808 7.921 7.921 0 01-2.71 1.852c-1.054.442-2.23.663-3.53.663zm27.466 5.616c1.43 0 2.788-.182 4.075-.546 1.287-.364 2.418-.923 3.393-1.677a8.151 8.151 0 002.32-2.847c.573-1.144.859-2.483.859-4.017 0-1.612-.312-2.899-.936-3.861a7.248 7.248 0 00-2.36-2.301 12.615 12.615 0 00-3.061-1.326 81.635 81.635 0 01-3.062-.936c-.949-.312-1.735-.689-2.36-1.131-.623-.442-.935-1.079-.935-1.911 0-.52.13-.962.39-1.326a2.89 2.89 0 011.014-.878 5.231 5.231 0 011.326-.487 6.285 6.285 0 011.365-.156c.754 0 1.553.15 2.398.448.845.3 1.515.761 2.009 1.385l4.173-4.563a10.434 10.434 0 00-3.94-2.223 15.488 15.488 0 00-4.523-.663c-1.352 0-2.665.188-3.94.566-1.273.377-2.398.942-3.373 1.696a8.46 8.46 0 00-2.34 2.808c-.585 1.118-.877 2.418-.877 3.9 0 1.534.318 2.769.955 3.705a7.519 7.519 0 002.399 2.262 14.011 14.011 0 003.12 1.365c1.118.338 2.158.676 3.12 1.014.962.338 1.761.748 2.398 1.229.637.48.956 1.137.956 1.969 0 .494-.124.923-.37 1.287a2.944 2.944 0 01-.976.897 4.89 4.89 0 01-1.365.526 6.662 6.662 0 01-1.501.176 6.735 6.735 0 01-2.945-.682 6.32 6.32 0 01-2.36-1.931l-4.328 4.758c1.326 1.222 2.756 2.106 4.29 2.652 1.534.546 3.198.819 4.992.819zm29.806 0c2.158 0 4.147-.338 5.967-1.014 1.82-.676 3.393-1.645 4.719-2.906 1.326-1.26 2.36-2.788 3.1-4.582.741-1.794 1.112-3.796 1.112-6.006 0-2.21-.37-4.212-1.112-6.006-.74-1.794-1.774-3.322-3.1-4.582-1.326-1.262-2.9-2.23-4.72-2.906-1.82-.676-3.808-1.014-5.966-1.014-2.158 0-4.147.338-5.967 1.014-1.82.676-3.393 1.645-4.72 2.905-1.325 1.261-2.359 2.789-3.1 4.583-.74 1.794-1.111 3.796-1.111 6.006 0 2.21.37 4.212 1.111 6.006.741 1.794 1.775 3.322 3.1 4.582 1.327 1.262 2.9 2.23 4.72 2.906 1.82.676 3.809 1.014 5.967 1.014zm0-5.616c-1.3 0-2.477-.221-3.53-.663a7.921 7.921 0 01-2.71-1.852 8.174 8.174 0 01-1.736-2.808c-.403-1.08-.604-2.269-.604-3.569 0-1.274.201-2.457.604-3.549a8.137 8.137 0 011.736-2.828 7.921 7.921 0 012.71-1.852c1.053-.442 2.23-.663 3.53-.663 1.3 0 2.476.221 3.53.663a7.921 7.921 0 012.71 1.852 8.137 8.137 0 011.735 2.828c.403 1.092.605 2.275.605 3.549 0 1.3-.202 2.49-.605 3.569a8.174 8.174 0 01-1.735 2.808 7.921 7.921 0 01-2.71 1.852c-1.054.442-2.23.663-3.53.663zM145.178 41V18.77h7.878v-5.382h-21.84v5.382h7.878V41h6.084zm18.262 0V29.963h3.003L172.215 41h7.293l-7.02-11.661c1.95-.364 3.432-1.229 4.446-2.593 1.014-1.365 1.52-3.023 1.52-4.973 0-1.612-.279-2.957-.838-4.037-.559-1.079-1.313-1.937-2.262-2.574-.949-.637-2.054-1.092-3.315-1.365a18.855 18.855 0 00-3.997-.409h-10.686V41h6.084zm3.588-16.185h-3.588v-6.279h3.978c.546 0 1.105.039 1.677.117a4.844 4.844 0 011.52.449c.443.22.807.539 1.093.955.286.416.429.975.429 1.677 0 .754-.163 1.339-.488 1.755a2.867 2.867 0 01-1.228.916 5.436 5.436 0 01-1.658.351c-.61.04-1.19.059-1.735.059zm30.235 16.887c2.158 0 4.147-.338 5.967-1.014 1.82-.676 3.393-1.645 4.719-2.906 1.326-1.26 2.36-2.788 3.1-4.582.741-1.794 1.112-3.796 1.112-6.006 0-2.21-.37-4.212-1.112-6.006-.74-1.794-1.774-3.322-3.1-4.582-1.326-1.262-2.9-2.23-4.72-2.906-1.82-.676-3.808-1.014-5.966-1.014-2.158 0-4.147.338-5.967 1.014-1.82.676-3.393 1.645-4.72 2.905-1.325 1.261-2.359 2.789-3.1 4.583-.74 1.794-1.111 3.796-1.111 6.006 0 2.21.37 4.212 1.111 6.006.741 1.794 1.775 3.322 3.1 4.582 1.327 1.262 2.9 2.23 4.72 2.906 1.82.676 3.809 1.014 5.967 1.014zm0-5.616c-1.3 0-2.477-.221-3.53-.663a7.921 7.921 0 01-2.71-1.852 8.174 8.174 0 01-1.736-2.808c-.403-1.08-.604-2.269-.604-3.569 0-1.274.201-2.457.604-3.549a8.137 8.137 0 011.736-2.828 7.921 7.921 0 012.71-1.852c1.053-.442 2.23-.663 3.53-.663 1.3 0 2.476.221 3.53.663a7.921 7.921 0 012.71 1.852 8.137 8.137 0 011.735 2.828c.403 1.092.605 2.275.605 3.549 0 1.3-.202 2.49-.605 3.569a8.174 8.174 0 01-1.735 2.808 7.921 7.921 0 01-2.71 1.852c-1.054.442-2.23.663-3.53.663zm27.465 5.616c1.43 0 2.789-.182 4.076-.546 1.287-.364 2.418-.923 3.393-1.677a8.151 8.151 0 002.32-2.847c.572-1.144.858-2.483.858-4.017 0-1.612-.312-2.899-.936-3.861a7.248 7.248 0 00-2.359-2.301 12.615 12.615 0 00-3.062-1.326 81.635 81.635 0 01-3.061-.936c-.949-.312-1.736-.689-2.36-1.131-.624-.442-.936-1.079-.936-1.911 0-.52.13-.962.39-1.326a2.89 2.89 0 011.014-.878 5.231 5.231 0 011.326-.487 6.285 6.285 0 011.365-.156c.754 0 1.554.15 2.399.448.845.3 1.514.761 2.008 1.385l4.173-4.563a10.434 10.434 0 00-3.939-2.223 15.488 15.488 0 00-4.524-.663c-1.352 0-2.665.188-3.939.566-1.274.377-2.398.942-3.373 1.696a8.46 8.46 0 00-2.34 2.808c-.585 1.118-.878 2.418-.878 3.9 0 1.534.319 2.769.956 3.705a7.519 7.519 0 002.398 2.262 14.011 14.011 0 003.12 1.365c1.118.338 2.158.676 3.12 1.014.962.338 1.762.748 2.399 1.229.637.48.955 1.137.955 1.969 0 .494-.123.923-.37 1.287a2.944 2.944 0 01-.975.897 4.89 4.89 0 01-1.365.526 6.662 6.662 0 01-1.502.176 6.735 6.735 0 01-2.944-.682 6.32 6.32 0 01-2.36-1.931l-4.329 4.758c1.326 1.222 2.756 2.106 4.29 2.652 1.534.546 3.198.819 4.992.819z" fill="#FFF" fill-rule="nonzero"/><ellipse fill="#FFF" cx="114.5" cy="27" rx="13.5" ry="13"/></g></svg>
